static/images/illustrations/undraw_Video_streaming_re.svg

<svg id="bbb60ac6-49e8-43f4-8a0f-978884ae8ca0" data-name="Layer 1" xmlns="http://www.w3.org/2000/svg" width="766" height="663.78" viewBox="0 0 766 663.78"><path d="M292.871,732.64839c-6.9791,23.31316,3.85236,47.1484,3.85236,47.1484s22.14678-13.96279,29.12586-37.276-3.85236-47.14841-3.85236-47.14841S299.85012,709.33525,292.871,732.64839Z" transform="translate(-217 -118.11)" fill="#f2f2f2"/><path d="M303.4675,733.27893c5.87388,23.61585-6.0677,46.91481-6.0677,46.91481s-21.465-14.98989-27.33882-38.60574,6.06764-46.91479,6.06764-46.91479S297.59362,709.66308,303.4675,733.27893Z" transform="translate(-217 -118.11)" fill="#f2f2f2"/><polygon points="435.535 638.619 439.977 627.192 398.017 604.619 391.461 621.484 435.535 638.619" fill="#ffb8b8"/><path d="M676.33666,726.91969a15.37868,15.37868,0,0,0-19.91544,8.7659l-2.9969,7.703-4.62021,11.89009-1.12945,2.91539,14.80606,5.75954,14.32146-36.84918Z" transform="translate(-217 -118.11)" fill="#2f2e41"/><path d="M648.80588,734.73787l-1.93215,5.12355-4.82182,12.78824-.11567.31983c-12.28491,1.57847-25.75239-1.516-38.20882-6.32324a155.31182,155.31182,0,0,1-14.62441-6.52576c-7.04426-3.5593-13.35151-7.31588-18.38323-10.52878-7.57588-4.86233-12.26034-8.51324-12.26034-8.51324s-1.23757,1.11835-3.477,3.03611c-3.00151,2.56814-7.79768,6.57847-13.87288,11.29915q-3.47624,2.7201-7.46478,5.69034c-19.60112,14.53884-44.75556-24.2561-44.75556-24.2561s7.07456-4.504,8.92274-5.37858c5.95119-2.81556,19.93229-9.4593,31.99433-15.36345,6.21425-3.04642,11.91181-5.90255,15.73713-7.93248,13.54579-7.212,30.38421,6.43472,30.38421,6.43472Z" transform="translate(-217 -118.11)" fill="#2f2e41"/><path d="M648.80588,734.73787l-1.93215,5.12355-4.82182,12.78824-.11567.31983c-12.28491,1.57847-25.75239-1.516-38.20882-6.32324a155.31182,155.31182,0,0,1-14.62441-6.52576c-7.04426-3.5593-13.35151-7.31588-18.38323-10.52878-7.57588-4.86233-12.26034-8.51324-12.26034-8.51324s-1.23757,1.11835-3.477,3.03611c-3.00151,2.56814-7.79768,6.57847-13.87288,11.29915q-3.47624,2.7201-7.46478,5.69034c-19.60112,14.53884-44.75556-24.2561-44.75556-24.2561s7.07456-4.504,8.92274-5.37858c5.95119-2.81556,19.93229-9.4593,31.99433-15.36345,6.21425-3.04642,11.91181-5.90255,15.73713-7.93248,13.54579-7.212,30.38421,6.43472,30.38421,6.43472Z" transform="translate(-217 -118.11)" opacity="0.14"/><circle cx="183.57878" cy="172.3117" r="172.3117" fill="#007ca6"/><path d="M273.34937,175.331A172.32514,172.32514,0,0,0,560.4716,357.70067,172.32654,172.32654,0,1,1,273.34937,175.331Z" transform="translate(-217 -118.11)" opacity="0.2" style="isolation:isolate"/><polygon points="184.052 172.311 184.526 172.311 193.047 660.843 175.058 660.843 184.052 172.311" fill="#3f3d56"/><rect x="382.52342" y="507.1554" width="8.5209" height="32.19013" transform="translate(-473.4058 503.62826) rotate(-62.23413)" fill="#3f3d56"/><path d="M982,780.89786H218a1,1,0,0,1,0-2H982a1,1,0,0,1,0,2Z" transform="translate(-217 -118.11)" fill="#3f3d56"/><path d="M452.746,627.18653h-58a4.50508,4.50508,0,0,1-4.5-4.5v-25a33.5,33.5,0,0,1,67,0v25A4.50508,4.50508,0,0,1,452.746,627.18653Z" transform="translate(-217 -118.11)" fill="#2f2e41"/><path d="M507.9036,658.58833a9.377,9.377,0,0,0-7.1855,12.45427l-15.77152,14.50579,6.47754,11.7343,21.98473-20.7978a9.42779,9.42779,0,0,0-5.50525-17.89656Z" transform="translate(-217 -118.11)" fill="#ffb8b8"/><path d="M460.44794,724.54q-1.06862,0-2.14038-.09229A25.19929,25.19929,0,0,1,438.01,710.89248l-25.26734-48.63281a13.95418,13.95418,0,0,1,24.12989-13.96484l23.31079,52.30371,31.71924-25.772,18.36572,7.14941-31.01611,34.2417A25.48478,25.48478,0,0,1,460.44794,724.54Z" transform="translate(-217 -118.11)" fill="#ccc"/><path d="M553.91347,649.39517l-28.10169-28.10174a5.24193,5.24193,0,0,0-7.41315,0l-25.2799,25.27991a5.24192,5.24192,0,0,0,0,7.41314l26.25647,26.25647a5.24188,5.24188,0,0,0,7.13348.26l27.12512-23.43463a5.24189,5.24189,0,0,0,.53968-7.39349Q554.04859,649.53036,553.91347,649.39517Z" transform="translate(-217 -118.11)" fill="#3f3d56"/><polygon points="332.935 536.213 304.009 507.288 280.138 531.159 307.941 558.961 332.935 536.213" fill="#f2f2f2"/><circle cx="306.05974" cy="532.88576" r="11.74605" fill="#007ca6"/><path d="M528.28786,661.00711a11.74609,11.74609,0,0,0-11.96552-19.632,11.74565,11.74565,0,1,1,10.65973,20.69257A11.8299,11.8299,0,0,0,528.28786,661.00711Z" transform="translate(-217 -118.11)" opacity="0.1" style="isolation:isolate"/><path d="M517.2848,648.66159c-1.40075,1.31617-1.47485,6.05414.66394,8.33039s5.68061,1.22888,7.08136-.08728.13013-2.40278-2.00872-4.67908S518.68562,647.34543,517.2848,648.66159Z" transform="translate(-217 -118.11)" fill="#f2f2f2"/><circle cx="312.20912" cy="533.07722" r="3.4803" fill="#2f2e41"/><circle cx="305.95329" cy="526.41933" r="3.4803" fill="#2f2e41"/><circle cx="312.20912" cy="533.07722" r="0.87007" fill="#f2f2f2"/><circle cx="312.58363" cy="530.93452" r="0.43504" fill="#f2f2f2"/><circle cx="306.32777" cy="524.27663" r="0.43504" fill="#f2f2f2"/><circle cx="305.95329" cy="526.41933" r="0.87007" fill="#f2f2f2"/><polygon points="431.99 654.69 437.297 643.639 397.196 617.909 389.363 634.22 431.99 654.69" fill="#ffb8b8"/><path d="M675.01215,744.90787a15.37868,15.37868,0,0,0-20.53,7.21l-3.57984,7.45-5.52,11.5-1.35009,2.82,14.31982,6.88,17.11011-35.64Z" transform="translate(-217 -118.11)" fill="#2f2e41"/><path d="M646.9621,750.58786l-2.32007,4.96-5.79,12.38-.13989.31c-12.36988.63-25.55982-3.49-37.61011-9.24a155.31151,155.31151,0,0,1-14.07983-7.63c-6.75-4.09-12.75-8.32-17.52-11.91-7.17994-5.43-11.57007-9.43-11.57007-9.43s-1.31983,1.02-3.69995,2.76c-3.18995,2.33-8.28,5.96-14.7,10.2q-3.67494,2.445-7.87989,5.1c-20.66015,12.99-50.04,28.81-75.03027,32.15-43.88989,5.87-33.55982-52.7-33.55982-52.7l34.92994-18.14,14.83007,3.01,16.51,3.34,5.84986,1.19s1.1101-.42,3.02-1.15c6.1499-2.35,20.60009-7.9,33.08008-12.86005,6.42993-2.56,12.33007-4.97,16.3-6.7,14.05982-6.15,29.8,8.75,29.8,8.75Z" transform="translate(-217 -118.11)" fill="#2f2e41"/><path d="M359.14474,781.63626a9.377,9.377,0,0,0,6.532-12.80913l15.00042-15.30183-7.07558-11.3837-20.88,21.90668a9.42779,9.42779,0,0,0,6.4232,17.588Z" transform="translate(-217 -118.11)" fill="#ffb8b8"/><circle cx="214.9579" cy="486.80653" r="23.38625" fill="#ffb8b8"/><path d="M401.53314,669.83389,421.905,727.58975l-.12232.20215c-2.83349,4.68408-3.75952,8.4624-2.67773,10.92627a4.76117,4.76117,0,0,0,3.01855,2.604l48.20874-33.69678-1.688-13.50537.094-.15088c4.65967-7.45556,6.16846-14.20751,4.48511-20.06738-2.18433-7.604-9.12549-11.05615-9.19532-11.09033l-.168-.13232L439.81512,633.414,407.673,639.12442Z" transform="translate(-217 -118.11)" fill="#ccc"/><path d="M370.55316,771.20938,356.9057,754.4125l32.89941-54.30957,15.33863-47.41259.47583.1538-.47583-.1538a19.04653,19.04653,0,1,1,33.96362,16.43652l-28.15967,42.189Z" transform="translate(-217 -118.11)" fill="#ccc"/><path d="M465.17131,600.18653H429.70573l-.36377-5.0918-1.81836,5.0918h-5.46093l-.72071-10.0918-3.604,10.0918H407.17131v-.5a26.52975,26.52975,0,0,1,26.49975-26.5h5.00025a26.53,26.53,0,0,1,26.5,26.5Z" transform="translate(-217 -118.11)" fill="#2f2e41"/><path d="M429.41548,631.85328a4.5972,4.5972,0,0,1-.79639-.07031l-25.96948-4.582V584.281H431.237l-.70777.8252c-9.84716,11.48437-2.42846,30.10645,2.87012,40.18457a4.43339,4.43339,0,0,1-.35229,4.707A4.48192,4.48192,0,0,1,429.41548,631.85328Z" transform="translate(-217 -118.11)" fill="#2f2e41"/><circle cx="588.13918" cy="324.68944" r="113.99999" fill="#3f3d56"/><path d="M775.99213,398.48812v96.99122a2.49731,2.49731,0,0,0,3.74028,2.30172l76.88333-48.49562a2.74779,2.74779,0,0,0,0-4.57144l-76.88333-48.49563a2.47393,2.47393,0,0,0-3.74028,2.26975Z" transform="translate(-217 -118.11)" fill="#f2f2f2"/></svg>

<?xml version="1.0" encoding="UTF-8" standalone="no"?>
<!DOCTYPE svg PUBLIC "-//W3C//DTD SVG 1.1//EN" "http://www.w3.org/Graphics/SVG/1.1/DTD/svg11.dtd">
<svg width="100%" height="100%" viewBox="0 0 766 664" version="1.1" xmlns="http://www.w3.org/2000/svg" xmlns:xlink="http://www.w3.org/1999/xlink" xml:space="preserve" xmlns:serif="http://www.serif.com/" style="fill-rule:evenodd;clip-rule:evenodd;stroke-linejoin:round;stroke-miterlimit:2;">
    <g transform="matrix(1,0,0,1,-217,-118.11)">
        <path d="M292.871,732.648C285.892,755.962 296.723,779.797 296.723,779.797C296.723,779.797 318.87,765.834 325.849,742.521C332.828,719.208 321.997,695.372 321.997,695.372C321.997,695.372 299.85,709.335 292.871,732.648Z" style="fill:rgb(0,124,166);fill-opacity:0.2;fill-rule:nonzero;"/>
    </g>
    <g transform="matrix(1,0,0,1,-217,-118.11)">
        <path d="M303.467,733.279C309.341,756.895 297.4,780.194 297.4,780.194C297.4,780.194 275.935,765.204 270.061,741.588C264.187,717.972 276.129,694.673 276.129,694.673C276.129,694.673 297.594,709.663 303.467,733.279Z" style="fill:rgb(0,124,166);fill-opacity:0.2;fill-rule:nonzero;"/>
    </g>
    <path d="M435.535,638.619L439.977,627.192L398.017,604.619L391.461,621.484L435.535,638.619Z" style="fill:rgb(255,184,184);fill-rule:nonzero;"/>
    <g transform="matrix(1,0,0,1,-217,-118.11)">
        <path d="M676.337,726.92C674.558,726.227 672.666,725.872 670.758,725.872C664.426,725.872 658.713,729.783 656.421,735.686L653.424,743.389L648.804,755.279L647.675,758.194L662.481,763.954L676.802,727.104L676.337,726.92Z" style="fill:rgb(43,41,77);fill-rule:nonzero;"/>
    </g>
    <g transform="matrix(1,0,0,1,-217,-118.11)">
        <path d="M648.806,734.738L646.874,739.861L642.052,752.65L641.936,752.969C629.651,754.548 616.184,751.453 603.727,746.646C598.744,744.724 593.862,742.546 589.103,740.12C582.059,736.561 575.752,732.805 570.72,729.592C563.144,724.729 558.459,721.078 558.459,721.078C558.459,721.078 557.222,722.197 554.982,724.115C551.981,726.683 547.185,730.693 541.11,735.414C538.792,737.227 536.304,739.124 533.645,741.104C514.044,755.643 488.889,716.848 488.889,716.848C488.889,716.848 495.964,712.344 497.812,711.469C503.763,708.654 517.744,702.01 529.806,696.106C536.021,693.06 541.718,690.203 545.543,688.173C559.089,680.961 575.928,694.608 575.928,694.608L648.806,734.738Z" style="fill:rgb(47,46,65);fill-rule:nonzero;"/>
    </g>
    <g transform="matrix(1,0,0,1,-217,-118.11)">
        <path d="M648.806,734.738L646.874,739.861L642.052,752.65L641.936,752.969C629.651,754.548 616.184,751.453 603.727,746.646C598.744,744.724 593.862,742.546 589.103,740.12C582.059,736.561 575.752,732.805 570.72,729.592C563.144,724.729 558.459,721.078 558.459,721.078C558.459,721.078 557.222,722.197 554.982,724.115C551.981,726.683 547.185,730.693 541.11,735.414C538.792,737.227 536.304,739.124 533.645,741.104C514.044,755.643 488.889,716.848 488.889,716.848C488.889,716.848 495.964,712.344 497.812,711.469C503.763,708.654 517.744,702.01 529.806,696.106C536.021,693.06 541.718,690.203 545.543,688.173C559.089,680.961 575.928,694.608 575.928,694.608L648.806,734.738Z" style="fill:rgb(46,59,98);fill-opacity:0.14;fill-rule:nonzero;"/>
    </g>
    <circle cx="183.579" cy="172.312" r="172.312" style="fill:rgb(0,124,166);"/>
    <g transform="matrix(1,0,0,1,-217,-118.11)">
        <path d="M273.349,175.331C264.197,196.741 259.477,219.786 259.477,243.07C259.477,337.605 337.268,415.395 431.803,415.395C480.933,415.395 527.79,394.384 560.472,357.701C533.406,421.02 470.875,462.296 402.014,462.296C307.478,462.296 229.687,384.505 229.687,289.969C229.687,247.706 245.235,206.886 273.349,175.331Z" style="fill-opacity:0.2;fill-rule:nonzero;"/>
    </g>
    <path d="M184.052,172.311L184.526,172.311L193.047,660.843L175.058,660.843L184.052,172.311Z" style="fill:rgb(63,61,86);fill-rule:nonzero;"/>
    <g transform="matrix(0.46586,-0.884859,0.884859,0.46586,-473.406,503.628)">
        <rect x="382.523" y="507.155" width="8.521" height="32.19" style="fill:rgb(63,61,86);"/>
    </g>
    <g transform="matrix(1,0,0,1,-217,-118.11)">
        <path d="M982,780.898L218,780.898C217.451,780.898 217,780.446 217,779.898C217,779.349 217.451,778.898 218,778.898L982,778.898C982.549,778.898 983,779.349 983,779.898C983,780.446 982.549,780.898 982,780.898Z" style="fill:rgb(63,61,86);fill-rule:nonzero;"/>
    </g>
    <g transform="matrix(1,0,0,1,-217,-118.11)">
        <path d="M452.746,627.187L394.746,627.187C392.278,627.184 390.249,625.154 390.246,622.687L390.246,597.687C390.246,579.309 405.368,564.187 423.746,564.187C442.124,564.187 457.246,579.309 457.246,597.687L457.246,622.687C457.243,625.154 455.214,627.184 452.746,627.187Z" style="fill:rgb(113,101,118);fill-rule:nonzero;"/>
    </g>
    <g transform="matrix(1,0,0,1,-217,-118.11)">
        <path d="M507.904,658.588C503.437,659.373 500.148,663.29 500.148,667.824C500.148,668.922 500.341,670.011 500.718,671.043L484.947,685.548L491.424,697.283L513.409,676.485C516.815,674.978 519.022,671.588 519.022,667.863C519.022,662.691 514.766,658.436 509.594,658.436C509.027,658.436 508.461,658.487 507.904,658.588Z" style="fill:rgb(255,184,184);fill-rule:nonzero;"/>
    </g>
    <g transform="matrix(1,0,0,1,-217,-118.11)">
        <path d="M460.448,724.54C459.736,724.54 459.022,724.509 458.308,724.448C449.668,723.727 441.986,718.596 438.01,710.892L412.743,662.26C411.71,660.272 411.171,658.066 411.171,655.826C411.171,648.171 417.47,641.872 425.125,641.872C429.875,641.872 434.309,644.297 436.873,648.295L460.183,700.599L491.903,674.827L510.268,681.976L479.252,716.218C474.434,721.507 467.603,724.53 460.448,724.54Z" style="fill:rgb(204,204,204);fill-rule:nonzero;"/>
    </g>
    <g transform="matrix(1,0,0,1,-217,-118.11)">
        <path d="M553.913,649.395L525.812,621.293C523.778,619.26 520.432,619.26 518.399,621.293L493.119,646.573C491.085,648.607 491.085,651.953 493.119,653.986L519.375,680.243C521.307,682.175 524.441,682.289 526.509,680.503L553.634,657.068C554.786,656.073 555.449,654.624 555.449,653.102C555.449,651.844 554.996,650.627 554.173,649.675C554.09,649.579 554.004,649.485 553.913,649.395Z" style="fill:rgb(63,61,86);fill-rule:nonzero;"/>
    </g>
    <path d="M332.935,536.213L304.009,507.288L280.138,531.159L307.941,558.961L332.935,536.213Z" style="fill:rgb(242,242,242);fill-rule:nonzero;"/>
    <circle cx="306.06" cy="532.886" r="11.746" style="fill:rgb(0,124,166);"/>
    <g transform="matrix(1,0,0,1,-217,-118.11)">
        <path d="M528.288,661.007C530.65,658.788 531.991,655.688 531.991,652.447C531.991,646.003 526.688,640.701 520.245,640.701C518.908,640.701 517.582,640.929 516.322,641.375C518.297,639.993 520.65,639.251 523.06,639.251C529.503,639.251 534.805,644.553 534.805,650.996C534.805,655.959 531.66,660.41 526.982,662.068C527.442,661.746 527.878,661.391 528.288,661.007Z" style="fill-opacity:0.1;fill-rule:nonzero;"/>
    </g>
    <g transform="matrix(1,0,0,1,-217,-118.11)">
        <path d="M517.285,648.662C515.884,649.978 515.81,654.716 517.949,656.992C520.088,659.268 523.629,658.221 525.03,656.905C526.431,655.589 525.16,654.502 523.021,652.226C520.883,649.949 518.686,647.345 517.285,648.662Z" style="fill:rgb(242,242,242);fill-rule:nonzero;"/>
    </g>
    <circle cx="312.209" cy="533.077" r="3.48" style="fill:rgb(47,46,65);"/>
    <circle cx="305.953" cy="526.419" r="3.48" style="fill:rgb(47,46,65);"/>
    <circle cx="312.209" cy="533.077" r="0.87" style="fill:rgb(242,242,242);"/>
    <circle cx="312.584" cy="530.935" r="0.435" style="fill:rgb(242,242,242);"/>
    <circle cx="306.328" cy="524.277" r="0.435" style="fill:rgb(242,242,242);"/>
    <circle cx="305.953" cy="526.419" r="0.87" style="fill:rgb(242,242,242);"/>
    <path d="M431.99,654.69L437.297,643.639L397.196,617.909L389.363,634.22L431.99,654.69Z" style="fill:rgb(255,184,184);fill-rule:nonzero;"/>
    <g transform="matrix(1,0,0,1,-217,-118.11)">
        <path d="M675.012,744.908C672.933,743.908 670.656,743.389 668.349,743.389C662.442,743.389 657.036,746.792 654.482,752.118L650.902,759.568L645.382,771.068L644.032,773.888L658.352,780.768L675.462,745.128L675.012,744.908Z" style="fill:rgb(43,41,77);fill-rule:nonzero;"/>
    </g>
    <g transform="matrix(1,0,0,1,-217,-118.11)">
        <path d="M646.962,750.588L644.642,755.548L638.852,767.928L638.712,768.238C626.342,768.868 613.152,764.748 601.102,758.998C596.281,756.698 591.581,754.152 587.022,751.368C580.272,747.278 574.272,743.048 569.502,739.458C562.322,734.028 557.932,730.028 557.932,730.028C557.932,730.028 556.612,731.048 554.232,732.788C551.042,735.118 545.952,738.748 539.532,742.988C537.082,744.618 534.456,746.318 531.652,748.088C510.992,761.078 481.612,776.898 456.622,780.238C412.732,786.108 423.062,727.538 423.062,727.538L457.992,709.398L472.822,712.408L489.332,715.748L495.182,716.938C495.182,716.938 496.292,716.518 498.202,715.788C504.352,713.438 518.802,707.888 531.282,702.928C537.712,700.368 543.612,697.958 547.582,696.228C561.642,690.078 577.382,704.978 577.382,704.978L646.962,750.588Z" style="fill:rgb(46,59,98);fill-rule:nonzero;"/>
    </g>
    <g transform="matrix(1,0,0,1,-217,-118.11)">
        <path d="M359.145,781.636C363.39,780.662 366.425,776.852 366.425,772.497C366.425,771.236 366.17,769.988 365.677,768.827L380.677,753.525L373.602,742.142L352.722,764.048C349.554,765.65 347.549,768.911 347.549,772.461C347.549,777.633 351.805,781.889 356.977,781.889C357.707,781.889 358.434,781.804 359.145,781.636L359.145,781.636Z" style="fill:rgb(255,184,184);fill-rule:nonzero;"/>
    </g>
    <circle cx="214.958" cy="486.807" r="23.386" style="fill:rgb(255,184,184);"/>
    <g transform="matrix(1,0,0,1,-217,-118.11)">
        <path d="M401.533,669.834L421.905,727.59L421.783,727.792C418.949,732.476 418.023,736.254 419.105,738.718C419.681,739.985 420.786,740.938 422.123,741.322L470.332,707.625L468.644,694.12L468.738,693.969C473.398,686.514 474.907,679.762 473.223,673.902C471.039,666.298 464.098,662.846 464.028,662.811L463.86,662.679L439.815,633.414L407.673,639.124L401.533,669.834Z" style="fill:rgb(204,204,204);fill-rule:nonzero;"/>
    </g>
    <g transform="matrix(1,0,0,1,-217,-118.11)">
        <path d="M370.553,771.209L356.906,754.413L389.805,700.103L405.144,652.69L405.62,652.844L405.144,652.69C407.68,644.852 415.027,639.506 423.266,639.506C433.714,639.506 442.312,648.104 442.312,658.553C442.312,662.316 441.197,665.997 439.107,669.127L410.948,711.316L370.553,771.209Z" style="fill:rgb(204,204,204);fill-rule:nonzero;"/>
    </g>
    <g transform="matrix(1,0,0,1,-217,-118.11)">
        <path d="M465.171,600.187L429.706,600.187L429.342,595.095L427.524,600.187L422.063,600.187L421.342,590.095L417.738,600.187L407.171,600.187L407.171,599.687C407.188,585.155 419.14,573.203 433.671,573.187L438.671,573.187C453.203,573.203 465.155,585.155 465.171,599.687L465.171,600.187Z" style="fill:rgb(113,101,118);fill-rule:nonzero;"/>
    </g>
    <g transform="matrix(1,0,0,1,-217,-118.11)">
        <path d="M429.415,631.853C429.148,631.853 428.882,631.829 428.619,631.783L402.65,627.201L402.65,584.281L431.237,584.281L430.529,585.106C420.682,596.591 428.101,615.213 433.399,625.291C434.195,626.795 434.058,628.629 433.047,629.998C432.205,631.162 430.852,631.853 429.415,631.853Z" style="fill:rgb(113,101,118);fill-rule:nonzero;"/>
    </g>
    <circle cx="588.139" cy="324.689" r="114" style="fill:rgb(76,74,104);"/>
    <g transform="matrix(1,0,0,1,-217,-118.11)">
        <path d="M775.992,398.488L775.992,495.479C775.99,495.525 775.988,495.571 775.988,495.617C775.988,496.987 777.116,498.115 778.486,498.115C778.923,498.115 779.353,498 779.732,497.781L856.616,449.285C857.379,448.776 857.838,447.917 857.838,447C857.838,446.082 857.379,445.223 856.616,444.714L779.732,396.218C779.348,395.989 778.909,395.867 778.462,395.867C777.105,395.867 775.988,396.984 775.988,398.341C775.988,398.39 775.989,398.439 775.992,398.488Z" style="fill:rgb(242,242,242);fill-rule:nonzero;"/>
    </g>
</svg>
